X:163
T:New Shields. Ru1.163
%%VWML:RutherfordVol1-2248-p62-0p62
Z:Transcription by Village Music Project, Steve Mansfield July 2015
F:http://www.village-music-project.org.uk/
F:http://www.vwml.org/record/RutherfordVol1/2248/p62
L:1/4
W:Cast of[f] one Cu. and Half Figure with the 3d
W:Cu. .| Cross up to the top and half Figure :|
W:Gallop down and up again foot it and Cast
W:off :| Hands round all six and turn your
W:Partner :|
Q:3/4=90
K:Dm
|:DEF TE2D | d2e f2g | agf edc | Afd cAF |
DEF TE2D | d2e f2g | agf ed^c | d3 D3 :|
|: fga fga | fga Tg2f | ecg ecg | ecg Tf2e |
fga agf | efg gfe | fga Ad^c | d3 D3 :|]
T:Tarr Water. Ru1.164
B:Rutherford's Country Dances Vol 1, 1756
Z:village music project, Steve Mansfield July 2015
M:C
L:1/8
W:The 1st Man casts off and the 2d Wo. casts up
W:at the same time and turns .| The 1st Man
W:and second Wo. Does the same :| The 1st Ma[n]
W:set to the 2d Wo. the 1st Woman does the
W:same .|. foot it to your Partner and right
W:hand and Left :|
Q:2/4=75
N:NB f2 in Mss, amended to balance bar lengths
K:C
|:g/f/ | edcA GA c2 | edcd eagf | edcA GA ce | fede c3 :|
|: "NB" f | e/f/g gg e/f/g gg | f/g/a aa f/g/a aa | \
e/f/g gg e/f/g gg | fede c3 :|]
